src/assets/icons/linkedin.svg

<svg width="24" height="25" viewBox="0 0 24 25" fill="none" xmlns="http://www.w3.org/2000/svg">
<path d="M21 5.19072V20.5437C21 20.8947 20.8606 21.2313 20.6123 21.4795C20.3641 21.7277 20.0275 21.8672 19.6765 21.8672H4.32353C3.97251 21.8672 3.63586 21.7277 3.38765 21.4795C3.13944 21.2313 3 20.8947 3 20.5437V5.19072C3 4.8397 3.13944 4.50305 3.38765 4.25484C3.63586 4.00663 3.97251 3.86719 4.32353 3.86719H19.6765C20.0275 3.86719 20.3641 4.00663 20.6123 4.25484C20.8606 4.50305 21 4.8397 21 5.19072ZM8.29412 10.7495H5.64706V19.2201H8.29412V10.7495ZM8.53235 7.83778C8.53375 7.63755 8.49569 7.439 8.42035 7.25348C8.34502 7.06796 8.23387 6.8991 8.09328 6.75653C7.95268 6.61397 7.78537 6.50049 7.60091 6.42259C7.41646 6.34468 7.21846 6.30387 7.01824 6.30248H6.97059C6.5634 6.30248 6.17289 6.46424 5.88497 6.75216C5.59705 7.04008 5.43529 7.43059 5.43529 7.83778C5.43529 8.24496 5.59705 8.63547 5.88497 8.92339C6.17289 9.21132 6.5634 9.37307 6.97059 9.37307C7.17083 9.378 7.37008 9.34342 7.55696 9.27131C7.74383 9.19921 7.91467 9.09099 8.0597 8.95283C8.20474 8.81468 8.32113 8.64931 8.40223 8.46615C8.48333 8.283 8.52755 8.08567 8.53235 7.88542V7.83778ZM18.3529 14.0742C18.3529 11.5278 16.7329 10.5378 15.1235 10.5378C14.5966 10.5114 14.0719 10.6236 13.6019 10.8633C13.1318 11.103 12.7328 11.4617 12.4447 11.9037H12.3706V10.7495H9.88235V19.2201H12.5294V14.7148C12.4911 14.2534 12.6365 13.7955 12.9339 13.4407C13.2313 13.0858 13.6567 12.8626 14.1176 12.8195H14.2182C15.06 12.8195 15.6847 13.349 15.6847 14.6831V19.2201H18.3318L18.3529 14.0742Z" fill="black"/>
</svg>

<svg xmlns="http://www.w3.org/2000/svg" width="24" height="25" fill="none"><path fill="#000" d="M21 5.19v15.354a1.323 1.323 0 0 1-1.323 1.323H4.324A1.324 1.324 0 0 1 3 20.544V5.19a1.324 1.324 0 0 1 1.324-1.324h15.353A1.323 1.323 0 0 1 21 5.191M8.294 10.75H5.647v8.47h2.647zm.238-2.912a1.525 1.525 0 0 0-1.514-1.536h-.047a1.535 1.535 0 0 0 0 3.071 1.525 1.525 0 0 0 1.561-1.488zm9.82 6.236c0-2.546-1.62-3.536-3.229-3.536a3.02 3.02 0 0 0-2.678 1.366h-.074v-1.155H9.882v8.471h2.647v-4.505a1.757 1.757 0 0 1 1.589-1.896h.1c.842 0 1.467.53 1.467 1.864v4.537h2.647z"/></svg>
